assets/logistics-color/LogisticsColor13.svg

<svg xmlns="http://www.w3.org/2000/svg" id="Layer_1" x="0" y="0" version="1.1" viewBox="0 0 256 256" xml:space="preserve"><style>.st0{fill:#fff}.st1{fill:#48386a}.st2{fill:#9feaff}</style><path d="M232.3 98.4v138.9H23.7V46.6h208.6v40.2z" class="st0"/><path d="M232.3 238.3H23.7c-.6 0-1-.4-1-1V46.6c0-.6.4-1 1-1h208.6c.6 0 1 .4 1 1v40.2c0 .6-.4 1-1 1s-1-.4-1-1V47.6H24.7v188.6h206.6V98.4c0-.6.4-1 1-1s1 .4 1 1v138.9c0 .5-.4 1-1 1z" class="st1"/><path d="M232.3 95.2c-.6 0-1-.4-1-1v-2.9c0-.6.4-1 1-1s1 .4 1 1v2.9c0 .5-.4 1-1 1z" class="st1"/><path d="M201.5 193.8h20.8v28.7h-84.6v-28.7h57.7z" class="st2"/><path d="M143.8 219c-.3 0-.5-.2-.5-.5v-18.7c0-.3.2-.5.5-.5s.5.2.5.5v18.7c0 .3-.2.5-.5.5zM149.2 219c-.3 0-.5-.2-.5-.5v-9.8c0-.3.2-.5.5-.5s.5.2.5.5v9.8c0 .3-.3.5-.5.5zM154.5 219c-.3 0-.5-.2-.5-.5v-9.8c0-.3.2-.5.5-.5s.5.2.5.5v9.8c0 .3-.2.5-.5.5zM159.9 219c-.3 0-.5-.2-.5-.5v-18.7c0-.3.2-.5.5-.5s.5.2.5.5v18.7c0 .3-.2.5-.5.5zM165.3 219c-.3 0-.5-.2-.5-.5v-9.8c0-.3.2-.5.5-.5s.5.2.5.5v9.8c0 .3-.2.5-.5.5zM170.7 219c-.3 0-.5-.2-.5-.5v-18.7c0-.3.2-.5.5-.5s.5.2.5.5v18.7c0 .3-.3.5-.5.5zM176 219c-.3 0-.5-.2-.5-.5v-9.8c0-.3.2-.5.5-.5s.5.2.5.5v9.8c0 .3-.2.5-.5.5zM181.4 219c-.3 0-.5-.2-.5-.5v-18.7c0-.3.2-.5.5-.5s.5.2.5.5v18.7c0 .3-.2.5-.5.5zM186.8 219c-.3 0-.5-.2-.5-.5v-9.8c0-.3.2-.5.5-.5s.5.2.5.5v9.8c0 .3-.3.5-.5.5zM192.1 219c-.3 0-.5-.2-.5-.5v-9.8c0-.3.2-.5.5-.5s.5.2.5.5v9.8c0 .3-.2.5-.5.5zM197.5 219c-.3 0-.5-.2-.5-.5v-9.8c0-.3.2-.5.5-.5s.5.2.5.5v9.8c0 .3-.2.5-.5.5zM202.9 219c-.3 0-.5-.2-.5-.5v-18.7c0-.3.2-.5.5-.5s.5.2.5.5v18.7c0 .3-.3.5-.5.5zM208.2 219c-.3 0-.5-.2-.5-.5v-18.7c0-.3.2-.5.5-.5s.5.2.5.5v18.7c0 .3-.2.5-.5.5zM79.7 42.9h-69c-.3 0-.5-.2-.5-.5V22.9c0-.3.2-.5.5-.5h69c.3 0 .5.2.5.5v19.5c0 .3-.2.5-.5.5zm-68.5-1h68V23.4h-68v18.5zM245.3 42.9h-69c-.3 0-.5-.2-.5-.5V22.9c0-.3.2-.5.5-.5h69c.3 0 .5.2.5.5v5.6c0 .3-.2.5-.5.5s-.5-.2-.5-.5v-5.1h-68v18.5h68v-7.4c0-.3.2-.5.5-.5s.5.2.5.5v7.9c0 .3-.3.5-.5.5zM69.9 214c-3.6 0-7.2-1.4-9.9-4.1-5.5-5.5-5.5-14.3 0-19.8l37.3-37.3c3.5-3.5 8.7-4.8 13.5-3.2 1.9.6 3.7 1.7 5.1 3.2l1.2 1.2c1.5 1.5 2.5 3.2 3.2 5.1 1.6 4.8.4 9.9-3.2 13.5l-24.2 24.2c-.4.4-1 .4-1.4 0s-.4-1 0-1.4l24.2-24.2c3-3 4-7.4 2.7-11.4-.5-1.6-1.4-3.1-2.7-4.3l-1.2-1.2c-1.2-1.2-2.7-2.1-4.3-2.7-4.1-1.4-8.4-.3-11.4 2.7l-37.3 37.3c-4.7 4.7-4.7 12.3 0 17 4.7 4.7 12.3 4.7 17 0l9.3-9.3c.4-.4 1-.4 1.4 0s.4 1 0 1.4l-9.3 9.3c-2.8 2.6-6.4 4-10 4z" class="st1"/><path d="M119.3 160.5h-.2c-.3-.1-.6-.3-.7-.7-.5-1.6-1.4-3.1-2.7-4.3l-1.2-1.2c-1.2-1.2-2.7-2.1-4.3-2.7-.3-.1-.6-.4-.7-.7-.1-.3 0-.7.3-.9l15.6-15.6c.2-.2.5-.3.8-.3.3 0 .6.2.7.4 1.2 1.6 2.5 3.2 4 4.6 1.4 1.4 3 2.8 4.6 4 .2.2.4.4.4.7s-.1.6-.3.8L120 160.2c-.2.2-.4.3-.7.3zm-7-10.2c1.3.6 2.6 1.5 3.6 2.6l1.2 1.2c1.1 1.1 1.9 2.3 2.6 3.6l13.7-13.7c-1.4-1.1-2.7-2.2-3.9-3.5-1.3-1.3-2.4-2.6-3.5-3.9l-13.7 13.7z" class="st1"/><path d="M158.7 152.6c-8.6 0-17.2-2.7-24.4-7.9-1.7-1.3-3.3-2.7-4.9-4.2-1.5-1.5-2.9-3.2-4.2-4.9-12.1-16.5-10.3-39.1 4.2-53.6 7.8-7.8 18.2-12.1 29.2-12.1S180 74.2 187.8 82c16.1 16.1 16.1 42.3 0 58.5-.8.8-1.6 1.6-2.5 2.3-.4.4-1 .3-1.4-.1-.4-.4-.3-1.1.1-1.4.8-.7 1.6-1.4 2.3-2.2 15.3-15.3 15.3-40.3 0-55.6-15.3-15.3-40.3-15.3-55.7 0-13.8 13.8-15.5 35.3-4 51 1.2 1.6 2.5 3.2 4 4.6 1.4 1.4 3 2.8 4.6 4 12.3 9 28.9 10 42.3 2.6.5-.3 1.1-.1 1.4.4.3.5.1 1.1-.4 1.4-6 3.4-12.9 5.1-19.8 5.1z" class="st1"/><path d="M158.7 136.3c-.2 0-.5-.2-.5-.4L152 86.3c0-.3.2-.5.4-.6.3 0 .5.2.6.4l6.2 49.5c.1.4-.1.6-.5.7.1 0 0 0 0 0zM167 126.7c-.2 0-.5-.2-.5-.4l-4-31.5c0-.3.2-.5.4-.6.3 0 .5.2.6.4l4 31.5c0 .3-.2.5-.5.6.1 0 0 0 0 0z" class="st1"/><path d="M67.4 195.4l38.6-38.6c2.6-2.6 6.7-2.6 9.3 0l1.9 1.9c2.6 2.6 2.6 6.7 0 9.3l-38.6 38.6c-2.6 2.6-6.7 2.6-9.3 0l-1.9-1.9c-2.6-2.6-2.6-6.8 0-9.3zM140.8 83.6c13.8-11 34.1-10.1 46.9 2.7 13.8 13.8 13.8 36.1 0 49.9-13.8 13.8-36.1 13.8-49.9 0s-13.8-36.1 0-49.9l3-2.7zM74.7 85.1H59v-10h38v10H78z" class="st2"/><path d="M78.3 86h10v48.5h-10z" class="st2" transform="rotate(90 83.266 110.284)"/><g><path d="M228.1 233.6H94.8c-.3 0-.5-.2-.5-.5s.2-.5.5-.5h132.8V51.4H28.4v181.2h59.9c.3 0 .5.2.5.5s-.2.5-.5.5H27.9c-.3 0-.5-.2-.5-.5V50.9c0-.3.2-.5.5-.5h200.2c.3 0 .5.2.5.5v182.2c0 .2-.2.5-.5.5z" class="st1"/></g><g><path d="M222.4 228.5H33.6c-.6 0-1-.4-1-1v-89.6c0-.6.4-1 1-1s1 .4 1 1v88.6h186.8v-169H34.6v74.8c0 .6-.4 1-1 1s-1-.4-1-1V56.5c0-.6.4-1 1-1h188.8c.6 0 1 .4 1 1v170.9c0 .6-.4 1.1-1 1.1z" class="st1"/></g><g><path d="M33.6 18.7H6.5v27.9h243V18.7H39.2z" class="st0"/><path d="M249.5 47.6H6.5c-.6 0-1-.4-1-1V18.7c0-.6.4-1 1-1h27.1c.6 0 1 .4 1 1s-.4 1-1 1H7.5v25.9h241V19.7H39.2c-.6 0-1-.4-1-1s.4-1 1-1h210.3c.6 0 1 .4 1 1v27.9c0 .6-.4 1-1 1z" class="st1"/></g><path d="M166.7 35v11.6H99.3V18.7h67.4v11.4z" class="st2"/><g><path d="M69.9 209c-1.8 0-3.6-.7-5-2.1L63 205c-1.3-1.3-2.1-3.1-2.1-5s.7-3.7 2.1-5l38.6-38.6c2.8-2.8 7.3-2.8 10 0l1.9 1.9c1.3 1.3 2.1 3.1 2.1 5s-.7 3.7-2.1 5L75 206.9c-1.4 1.4-3.2 2.1-5.1 2.1zm-6.2-13.3c-1.1 1.1-1.8 2.7-1.8 4.3s.6 3.2 1.8 4.3l1.9 1.9c2.4 2.4 6.2 2.4 8.6 0l38.6-38.6c1.1-1.1 1.8-2.7 1.8-4.3s-.6-3.2-1.8-4.3l-1.9-1.9c-2.4-2.4-6.2-2.4-8.6 0l-38.6 38.6z" class="st1"/></g><g><path d="M158.7 147c-9.2 0-18.3-3.5-25.3-10.5-6.7-6.7-10.5-15.7-10.5-25.3s3.7-18.6 10.5-25.3c.2-.2.5-.2.7 0s.2.5 0 .7c-6.6 6.6-10.2 15.3-10.2 24.6s3.6 18 10.2 24.6c13.6 13.6 35.6 13.6 49.2 0 13.6-13.6 13.6-35.6 0-49.2-12.5-12.4-32.4-13.6-46.2-2.6-.2.2-.5.1-.7-.1s-.1-.5.1-.7c14.2-11.3 34.7-10.2 47.6 2.7 14 14 14 36.7 0 50.6-7.1 7-16.2 10.5-25.4 10.5z" class="st1"/></g><g><path d="M93 85.6H74c-.3 0-.5-.2-.5-.5s.2-.5.5-.5h18.5v-9h-37v9h15.2c.3 0 .5.2.5.5s-.2.5-.5.5H55c-.3 0-.5-.2-.5-.5v-10c0-.3.2-.5.5-.5h38c.3 0 .5.2.5.5v10c0 .3-.3.5-.5.5z" class="st1"/></g><g><path d="M103.5 115.8H55c-.3 0-.5-.2-.5-.5v-10c0-.3.2-.5.5-.5h48.5c.3 0 .5.2.5.5v10c0 .2-.2.5-.5.5zm-48-1H103v-9H55.5v9z" class="st1"/></g><g><path d="M176.3 47.6H79.7c-.6 0-1-.4-1-1V18.7c0-.6.4-1 1-1h96.6c.6 0 1 .4 1 1v27.9c0 .6-.4 1-1 1zm-95.6-2h94.6V19.7H80.7v25.9z" class="st1"/></g><g><path d="M161.7 47.1H94.3c-.3 0-.5-.2-.5-.5V18.7c0-.3.2-.5.5-.5h67.5c.3 0 .5.2.5.5v11.4c0 .3-.2.5-.5.5s-.5-.2-.5-.5V19.2H94.8v26.9h66.5V35c0-.3.2-.5.5-.5s.5.2.5.5v11.6c-.1.3-.3.5-.6.5z" class="st1"/></g><g><path d="M97.2 90.3H50.8c-.6 0-1-.4-1-1V70.9c0-.6.4-1 1-1h46.4c.6 0 1 .4 1 1v18.4c0 .6-.5 1-1 1zm-45.4-2h44.4V71.9H51.8v16.4z" class="st1"/></g><g><path d="M107.8 120.5h-57c-.6 0-1-.4-1-1v-18.4c0-.6.4-1 1-1h57c.6 0 1 .4 1 1v18.4c0 .5-.5 1-1 1zm-56-2h55v-16.4h-55v16.4z" class="st1"/></g><g><path d="M218.3 223h-84.6c-.3 0-.5-.2-.5-.5v-28.8c0-.3.2-.5.5-.5h57.7c.3 0 .5.2.5.5s-.2.5-.5.5h-57.2V222h83.6v-27.8h-20.3c-.3 0-.5-.2-.5-.5s.2-.5.5-.5h20.8c.3 0 .5.2.5.5v28.8c0 .3-.2.5-.5.5z" class="st1"/></g><g><path d="M222.3 228.5h-92.5c-.6 0-1-.4-1-1v-37.6c0-.6.4-1 1-1h92.5c.6 0 1 .4 1 1v37.6c0 .5-.5 1-1 1zm-91.5-2h90.5v-35.6h-90.5v35.6z" class="st1"/></g></svg>

<svg xmlns="http://www.w3.org/2000/svg" id="Layer_1" x="0" y="0" enable-background="new 0 0 256 256" version="1.1" viewBox="0 0 256 256" xml:space="preserve"><style>.st0{fill:#FFFFFF;}
	.st1{fill:#48386A;}
	.st2{fill:#9FEAFF;}</style><path d="M232.3 98.4 232.3 237.3 23.7 237.3 23.7 46.6 232.3 46.6 232.3 86.8z" class="st0"/><path d="M232.3 238.3H23.7c-.6 0-1-.4-1-1V46.6c0-.6.4-1 1-1h208.6c.6 0 1 .4 1 1v40.2c0 .6-.4 1-1 1s-1-.4-1-1V47.6H24.7v188.6h206.6V98.4c0-.6.4-1 1-1s1 .4 1 1v138.9c0 .5-.4 1-1 1z" class="st1"/><path d="M232.3 95.2c-.6 0-1-.4-1-1v-2.9c0-.6.4-1 1-1s1 .4 1 1v2.9c0 .5-.4 1-1 1z" class="st1"/><path d="M201.5 193.8 222.3 193.8 222.3 222.5 137.7 222.5 137.7 193.8 195.4 193.8z" class="st2"/><path d="M143.8 219c-.3 0-.5-.2-.5-.5v-18.7c0-.3.2-.5.5-.5s.5.2.5.5v18.7c0 .3-.2.5-.5.5zM149.2 219c-.3 0-.5-.2-.5-.5v-9.8c0-.3.2-.5.5-.5s.5.2.5.5v9.8c0 .3-.3.5-.5.5zM154.5 219c-.3 0-.5-.2-.5-.5v-9.8c0-.3.2-.5.5-.5s.5.2.5.5v9.8c0 .3-.2.5-.5.5zM159.9 219c-.3 0-.5-.2-.5-.5v-18.7c0-.3.2-.5.5-.5s.5.2.5.5v18.7c0 .3-.2.5-.5.5zM165.3 219c-.3 0-.5-.2-.5-.5v-9.8c0-.3.2-.5.5-.5s.5.2.5.5v9.8c0 .3-.2.5-.5.5zM170.7 219c-.3 0-.5-.2-.5-.5v-18.7c0-.3.2-.5.5-.5s.5.2.5.5v18.7c0 .3-.3.5-.5.5zM176 219c-.3 0-.5-.2-.5-.5v-9.8c0-.3.2-.5.5-.5s.5.2.5.5v9.8c0 .3-.2.5-.5.5zM181.4 219c-.3 0-.5-.2-.5-.5v-18.7c0-.3.2-.5.5-.5s.5.2.5.5v18.7c0 .3-.2.5-.5.5zM186.8 219c-.3 0-.5-.2-.5-.5v-9.8c0-.3.2-.5.5-.5s.5.2.5.5v9.8c0 .3-.3.5-.5.5zM192.1 219c-.3 0-.5-.2-.5-.5v-9.8c0-.3.2-.5.5-.5s.5.2.5.5v9.8c0 .3-.2.5-.5.5zM197.5 219c-.3 0-.5-.2-.5-.5v-9.8c0-.3.2-.5.5-.5s.5.2.5.5v9.8c0 .3-.2.5-.5.5zM202.9 219c-.3 0-.5-.2-.5-.5v-18.7c0-.3.2-.5.5-.5s.5.2.5.5v18.7c0 .3-.3.5-.5.5zM208.2 219c-.3 0-.5-.2-.5-.5v-18.7c0-.3.2-.5.5-.5s.5.2.5.5v18.7c0 .3-.2.5-.5.5zM79.7 42.9h-69c-.3 0-.5-.2-.5-.5V22.9c0-.3.2-.5.5-.5h69c.3 0 .5.2.5.5v19.5c0 .3-.2.5-.5.5zm-68.5-1h68V23.4h-68v18.5zM245.3 42.9h-69c-.3 0-.5-.2-.5-.5V22.9c0-.3.2-.5.5-.5h69c.3 0 .5.2.5.5v5.6c0 .3-.2.5-.5.5s-.5-.2-.5-.5v-5.1h-68v18.5h68v-7.4c0-.3.2-.5.5-.5s.5.2.5.5v7.9c0 .3-.3.5-.5.5zM69.9 214c-3.6 0-7.2-1.4-9.9-4.1-5.5-5.5-5.5-14.3 0-19.8l37.3-37.3c3.5-3.5 8.7-4.8 13.5-3.2 1.9.6 3.7 1.7 5.1 3.2l1.2 1.2c1.5 1.5 2.5 3.2 3.2 5.1 1.6 4.8.4 9.9-3.2 13.5l-24.2 24.2c-.4.4-1 .4-1.4 0s-.4-1 0-1.4l24.2-24.2c3-3 4-7.4 2.7-11.4-.5-1.6-1.4-3.1-2.7-4.3l-1.2-1.2c-1.2-1.2-2.7-2.1-4.3-2.7-4.1-1.4-8.4-.3-11.4 2.7l-37.3 37.3c-4.7 4.7-4.7 12.3 0 17 4.7 4.7 12.3 4.7 17 0l9.3-9.3c.4-.4 1-.4 1.4 0s.4 1 0 1.4l-9.3 9.3c-2.8 2.6-6.4 4-10 4z" class="st1"/><path d="M119.3 160.5h-.2c-.3-.1-.6-.3-.7-.7-.5-1.6-1.4-3.1-2.7-4.3l-1.2-1.2c-1.2-1.2-2.7-2.1-4.3-2.7-.3-.1-.6-.4-.7-.7-.1-.3 0-.7.3-.9l15.6-15.6c.2-.2.5-.3.8-.3.3 0 .6.2.7.4 1.2 1.6 2.5 3.2 4 4.6 1.4 1.4 3 2.8 4.6 4 .2.2.4.4.4.7s-.1.6-.3.8L120 160.2c-.2.2-.4.3-.7.3zm-7-10.2c1.3.6 2.6 1.5 3.6 2.6l1.2 1.2c1.1 1.1 1.9 2.3 2.6 3.6l13.7-13.7c-1.4-1.1-2.7-2.2-3.9-3.5-1.3-1.3-2.4-2.6-3.5-3.9l-13.7 13.7z" class="st1"/><path d="M158.7 152.6c-8.6 0-17.2-2.7-24.4-7.9-1.7-1.3-3.3-2.7-4.9-4.2-1.5-1.5-2.9-3.2-4.2-4.9-12.1-16.5-10.3-39.1 4.2-53.6 7.8-7.8 18.2-12.1 29.2-12.1S180 74.2 187.8 82c16.1 16.1 16.1 42.3 0 58.5-.8.8-1.6 1.6-2.5 2.3-.4.4-1 .3-1.4-.1-.4-.4-.3-1.1.1-1.4.8-.7 1.6-1.4 2.3-2.2 15.3-15.3 15.3-40.3 0-55.6-15.3-15.3-40.3-15.3-55.7 0-13.8 13.8-15.5 35.3-4 51 1.2 1.6 2.5 3.2 4 4.6 1.4 1.4 3 2.8 4.6 4 12.3 9 28.9 10 42.3 2.6.5-.3 1.1-.1 1.4.4.3.5.1 1.1-.4 1.4-6 3.4-12.9 5.1-19.8 5.1z" class="st1"/><path d="M158.7 136.3c-.2 0-.5-.2-.5-.4L152 86.3c0-.3.2-.5.4-.6.3 0 .5.2.6.4l6.2 49.5c.1.4-.1.6-.5.7.1 0 0 0 0 0zM167 126.7c-.2 0-.5-.2-.5-.4l-4-31.5c0-.3.2-.5.4-.6.3 0 .5.2.6.4l4 31.5c0 .3-.2.5-.5.6.1 0 0 0 0 0z" class="st1"/><path d="m67.4 195.4 38.6-38.6c2.6-2.6 6.7-2.6 9.3 0l1.9 1.9c2.6 2.6 2.6 6.7 0 9.3l-38.6 38.6c-2.6 2.6-6.7 2.6-9.3 0l-1.9-1.9c-2.6-2.6-2.6-6.8 0-9.3zM140.8 83.6c13.8-11 34.1-10.1 46.9 2.7 13.8 13.8 13.8 36.1 0 49.9-13.8 13.8-36.1 13.8-49.9 0s-13.8-36.1 0-49.9l3-2.7z" class="st2"/><path d="M74.7 85.1 59 85.1 59 75.1 97 75.1 97 85.1 78 85.1z" class="st2"/><path d="M78.3 86H88.3V134.5H78.3z" class="st2" transform="rotate(90 83.266 110.284)"/><g><path d="M228.1 233.6H94.8c-.3 0-.5-.2-.5-.5s.2-.5.5-.5h132.8V51.4H28.4v181.2h59.9c.3 0 .5.2.5.5s-.2.5-.5.5H27.9c-.3 0-.5-.2-.5-.5V50.9c0-.3.2-.5.5-.5h200.2c.3 0 .5.2.5.5v182.2c0 .2-.2.5-.5.5z" class="st1"/></g><g><path d="M222.4 228.5H33.6c-.6 0-1-.4-1-1v-89.6c0-.6.4-1 1-1s1 .4 1 1v88.6h186.8v-169H34.6v74.8c0 .6-.4 1-1 1s-1-.4-1-1V56.5c0-.6.4-1 1-1h188.8c.6 0 1 .4 1 1v170.9c0 .6-.4 1.1-1 1.1z" class="st1"/></g><g><path d="M33.6 18.7 6.5 18.7 6.5 46.6 249.5 46.6 249.5 18.7 45.6 18.7 39.2 18.7z" class="st0"/><path d="M249.5 47.6H6.5c-.6 0-1-.4-1-1V18.7c0-.6.4-1 1-1h27.1c.6 0 1 .4 1 1s-.4 1-1 1H7.5v25.9h241V19.7H39.2c-.6 0-1-.4-1-1s.4-1 1-1h210.3c.6 0 1 .4 1 1v27.9c0 .6-.4 1-1 1z" class="st1"/></g><path d="M166.7 35 166.7 46.6 99.3 46.6 99.3 18.7 166.7 18.7 166.7 30.1z" class="st2"/><g><path d="M69.9 209c-1.8 0-3.6-.7-5-2.1L63 205c-1.3-1.3-2.1-3.1-2.1-5s.7-3.7 2.1-5l38.6-38.6c2.8-2.8 7.3-2.8 10 0l1.9 1.9c1.3 1.3 2.1 3.1 2.1 5s-.7 3.7-2.1 5L75 206.9c-1.4 1.4-3.2 2.1-5.1 2.1zm-6.2-13.3c-1.1 1.1-1.8 2.7-1.8 4.3s.6 3.2 1.8 4.3l1.9 1.9c2.4 2.4 6.2 2.4 8.6 0l38.6-38.6c1.1-1.1 1.8-2.7 1.8-4.3s-.6-3.2-1.8-4.3l-1.9-1.9c-2.4-2.4-6.2-2.4-8.6 0l-38.6 38.6z" class="st1"/></g><g><path d="M158.7 147c-9.2 0-18.3-3.5-25.3-10.5-6.7-6.7-10.5-15.7-10.5-25.3s3.7-18.6 10.5-25.3c.2-.2.5-.2.7 0s.2.5 0 .7c-6.6 6.6-10.2 15.3-10.2 24.6s3.6 18 10.2 24.6c13.6 13.6 35.6 13.6 49.2 0 13.6-13.6 13.6-35.6 0-49.2-12.5-12.4-32.4-13.6-46.2-2.6-.2.2-.5.1-.7-.1s-.1-.5.1-.7c14.2-11.3 34.7-10.2 47.6 2.7 14 14 14 36.7 0 50.6-7.1 7-16.2 10.5-25.4 10.5z" class="st1"/></g><g><path d="M93 85.6H74c-.3 0-.5-.2-.5-.5s.2-.5.5-.5h18.5v-9h-37v9h15.2c.3 0 .5.2.5.5s-.2.5-.5.5H55c-.3 0-.5-.2-.5-.5v-10c0-.3.2-.5.5-.5h38c.3 0 .5.2.5.5v10c0 .3-.3.5-.5.5z" class="st1"/></g><g><path d="M103.5 115.8H55c-.3 0-.5-.2-.5-.5v-10c0-.3.2-.5.5-.5h48.5c.3 0 .5.2.5.5v10c0 .2-.2.5-.5.5zm-48-1H103v-9H55.5v9z" class="st1"/></g><g><path d="M176.3 47.6H79.7c-.6 0-1-.4-1-1V18.7c0-.6.4-1 1-1h96.6c.6 0 1 .4 1 1v27.9c0 .6-.4 1-1 1zm-95.6-2h94.6V19.7H80.7v25.9z" class="st1"/></g><g><path d="M161.7 47.1H94.3c-.3 0-.5-.2-.5-.5V18.7c0-.3.2-.5.5-.5h67.5c.3 0 .5.2.5.5v11.4c0 .3-.2.5-.5.5s-.5-.2-.5-.5V19.2H94.8v26.9h66.5V35c0-.3.2-.5.5-.5s.5.2.5.5v11.6c-.1.3-.3.5-.6.5z" class="st1"/></g><g><path d="M97.2 90.3H50.8c-.6 0-1-.4-1-1V70.9c0-.6.4-1 1-1h46.4c.6 0 1 .4 1 1v18.4c0 .6-.5 1-1 1zm-45.4-2h44.4V71.9H51.8v16.4z" class="st1"/></g><g><path d="M107.8 120.5h-57c-.6 0-1-.4-1-1v-18.4c0-.6.4-1 1-1h57c.6 0 1 .4 1 1v18.4c0 .5-.5 1-1 1zm-56-2h55v-16.4h-55v16.4z" class="st1"/></g><g><path d="M218.3 223h-84.6c-.3 0-.5-.2-.5-.5v-28.8c0-.3.2-.5.5-.5h57.7c.3 0 .5.2.5.5s-.2.5-.5.5h-57.2V222h83.6v-27.8h-20.3c-.3 0-.5-.2-.5-.5s.2-.5.5-.5h20.8c.3 0 .5.2.5.5v28.8c0 .3-.2.5-.5.5z" class="st1"/></g><g><path d="M222.3 228.5h-92.5c-.6 0-1-.4-1-1v-37.6c0-.6.4-1 1-1h92.5c.6 0 1 .4 1 1v37.6c0 .5-.5 1-1 1zm-91.5-2h90.5v-35.6h-90.5v35.6z" class="st1"/></g></svg>
